src/lib/images/sponsors/innoq.svg

<?xml version="1.0" encoding="UTF-8"?>
<svg width="310px" height="131px" viewBox="0 0 310 131" version="1.1" xmlns="http://www.w3.org/2000/svg" xmlns:xlink="http://www.w3.org/1999/xlink">
    <title>innoq-logo--petrolwhite-boxed</title>
    <g id="Page-1" stroke="none" stroke-width="1" fill="none" fill-rule="evenodd">
        <g id="innoq-logo--petrolwhite-boxed">
            <rect id="Rectangle" fill="#FF9C66" fill-rule="nonzero" x="0" y="0" width="310" height="131"></rect>
            <polygon id="Path" fill="#004153" points="30 96.0837 44.6028 96.0837 44.6028 34.752 30 34.752"></polygon>
            <polygon id="Path" fill="#004153" points="129.418 34.752 129.418 72.1638 102.948 34.752 96.8533 34.752 89.6711 34.752 89.6044 34.752 89.6044 72.1638 63.1345 34.752 49.8594 34.752 49.8594 96.0837 63.7154 96.0837 63.7154 58.6719 90.1853 96.0837 92.4949 96.0837 100.334 96.0837 103.529 96.0837 103.529 58.6719 129.999 96.0837 143.317 96.0837 143.317 34.752"></polygon>
            <path d="M178.768,33.3252 C160.637,33.3252 147.797,46.779 147.797,65.0401 C147.797,83.2993 160.637,96.7551 178.768,96.7551 C196.898,96.7551 209.739,83.2993 209.739,65.0401 C209.739,46.779 196.898,33.3252 178.768,33.3252 Z M178.768,47.3048 C188.337,47.3048 195.135,54.5565 195.135,65.0401 C195.135,75.5238 188.337,82.7755 178.768,82.7755 C169.198,82.7755 162.4,75.5238 162.4,65.0401 C162.4,54.5565 169.198,47.3048 178.768,47.3048 Z" id="Shape" fill="#004153"></path>
            <path d="M244.756,34.5352 C226.626,34.5352 213.785,47.9889 213.785,66.2501 C213.785,84.5092 226.626,97.965 244.756,97.965 C250.925,97.965 256.213,96.1724 260.703,93.247 L263.305,96.8282 L279.798,96.8282 L270.524,83.7236 C273.798,78.8735 275.727,73.1079 275.727,66.2501 C275.727,47.9889 262.886,34.5352 244.756,34.5352 Z M244.756,48.5147 C254.323,48.5147 261.124,55.7664 261.124,66.2501 C261.124,68.2599 260.872,70.1378 260.409,71.8858 L258.522,69.2202 L243.245,69.2202 L252.519,82.1502 C250.254,83.3297 247.61,83.9855 244.756,83.9855 C235.187,83.9855 228.388,76.7338 228.388,66.2501 C228.388,55.7664 235.187,48.5147 244.756,48.5147 Z" id="Shape" fill="#FFFFFF"></path>
        </g>
    </g>
</svg>

<svg xmlns="http://www.w3.org/2000/svg" width="310" height="131"><g fill="none" fill-rule="evenodd"><path fill="#FF9C66" fill-rule="nonzero" d="M0 0h310v131H0z"/><path fill="#004153" d="M30 96.084h14.603V34.752H30zM129.418 34.752v37.412l-26.47-37.412H89.604v37.412l-26.47-37.412H49.86v61.332h13.856V58.672l26.47 37.412h13.344000000000001V58.672l26.47 37.412h13.318V34.752zM178.768 33.325c-18.131 0-30.971 13.454-30.971 31.715s12.84 31.715 30.971 31.715c18.13 0 30.971-13.456 30.971-31.715 0-18.261-12.841-31.715-30.971-31.715m0 13.98c9.569 0 16.367 7.252 16.367 17.735s-6.798 17.735-16.367 17.735S162.4 75.524 162.4 65.04s6.798-17.735 16.368-17.735"/><path fill="#FFF" d="M244.756 34.535c-18.13 0-30.971 13.454-30.971 31.715s12.841 31.715 30.971 31.715c6.169 0 11.457-1.793 15.947-4.718l2.602 3.581h16.493l-9.274-13.104c3.274-4.85 5.203-10.616 5.203-17.474 0-18.261-12.841-31.715-30.971-31.715m0 13.98c9.567 0 16.368 7.251 16.368 17.735 0 2.01-.252 3.888-.715 5.636l-1.887-2.666h-15.277l9.274 12.93c-2.265 1.18-4.909 1.835-7.763 1.835-9.569 0-16.368-7.251-16.368-17.735s6.799-17.735 16.368-17.735"/></g></svg>
